icons/mobile/24/svg/device-mobile-24.svg

<svg width="24" height="24" viewBox="0 0 24 24" fill="none" xmlns="http://www.w3.org/2000/svg">
<path fill-rule="evenodd" clip-rule="evenodd" d="M12.5005 2C13.5631 2.00002 14.8952 2.07639 16.4048 2.34375C17.8954 2.60785 19.0004 3.89959 19.0005 5.42578V18.5732C19.0004 20.0694 17.9428 21.3792 16.4487 21.6484C15.3081 21.8535 13.9792 22 12.5005 22C11.4379 22 10.1058 21.9236 8.59619 21.6562C7.10532 21.3923 5.99962 20.1006 5.99951 18.5742V5.42676C5.99963 3.93049 7.0579 2.62057 8.55225 2.35156L8.98877 2.27734C10.0274 2.1119 11.2065 2 12.5005 2ZM11.2505 18C10.8365 18 10.5005 18.336 10.5005 18.75C10.5005 19.164 10.8365 19.5 11.2505 19.5H13.7505C14.1643 19.4997 14.5005 19.1638 14.5005 18.75C14.5005 18.3362 14.1643 18.0003 13.7505 18H11.2505ZM12.5005 3.75C11.1376 3.75 9.91291 3.88434 8.86182 4.07324C8.22266 4.18848 7.7506 4.75547 7.75049 5.42676V16H17.2505V5.42578C17.2504 4.76051 16.7668 4.1847 16.1001 4.06641C14.7082 3.81988 13.4797 3.75002 12.5005 3.75Z" fill="black"/>
</svg>

<!-- This Source Code Form is subject to the terms of the Mozilla Public
   - License, v. 2.0. If a copy of the MPL was not distributed with this
   - file, You can obtain one at http://mozilla.org/MPL/2.0/. -->
<svg xmlns="http://www.w3.org/2000/svg" width="24" height="24" fill="none" viewBox="0 0 24 24">
    <path fill="#000" fill-rule="evenodd" d="M12.5 2c1.063 0 2.395.076 3.905.344A3.14 3.14 0 0 1 19 5.426v13.147a3.116 3.116 0 0 1-2.551 3.075 22.3 22.3 0 0 1-7.853.008A3.14 3.14 0 0 1 6 18.574V5.427a3.116 3.116 0 0 1 2.552-3.075l.437-.075A22 22 0 0 1 12.5 2m-1.25 16a.75.75 0 0 0 0 1.5h2.5a.75.75 0 0 0 0-1.5zM12.5 3.75c-1.362 0-2.587.134-3.638.323A1.366 1.366 0 0 0 7.75 5.427V16h9.5V5.426c0-.665-.483-1.241-1.15-1.36a20.7 20.7 0 0 0-3.6-.316" clip-rule="evenodd" />
</svg>
